!!!!SEGMENT: pl-wtm--r-1227--016_lodwigowski-edward-stefan--dalibog-ze-powiem-mamie.krn
!!!id: 18xx:1956
!!!COM: Łodwigowski, Edward Stefan
!!!COM-rism: pe30111147
!!!CDT: 1815/08/14-1895/11/12
!!!CNT: Polish
!!!OTL: Dalibóg że powiem mamie
!!!PDT:
!!!SMS-siglum: PL-Wtm
!!!SMS-shelfmark: R 1227
!!!NIFC-rismID: 1001084118
!!!URL-scan: http://repozytorium.nifc.pl/skany/pl-wtm-nut--r1226-1227
!!!ONB-nifc: UWAGA: No. 88
!!!OMD: No 88. Allegretto
!!!SMS-variant:
!!!SMS-altvar:
**kern	**fing	**kern	**fing	**dynam
*part2	*	*part1	*	*part1
*staff2	*	*staff1	*	*
*I"Fortepian	*	*I"Fortepian	*	*
*clefF4	*	*clefG2	*	*
*k[f#c#]	*	*k[f#c#]	*	*
*M3/8	*	*M3/8	*	*
*>[A,A,B,B]	*>[A,A,B,B]	*>[A,A,B,B]	*>[A,A,B,B]	*>[A,A,B,B]
=1	=1	=1	=1	=1
*all\right	*	*all\right	*	*
*>A	*>A	*>A	*>A	*>A
*^	*	*	*	*
!	!	!	!LO:TX:a:i:t=Dalibóg że powiem mamie. P.L.P.	!	!
4.AA/	8AA\L	.	(16.aa\LL	5	mf
.	.	.	32a\JJk	.	.
.	8G 8E 8C#\	.	8cc#'\L	2	.
.	8GJ 8E 8C#\	.	8ee'\J	3	.
=2	=2	=2	=2	=2	=2
*	*	*below	*	*	*
4.D/	8D\L	4	16.ff#\LL	4	.
.	.	.	32a\JJk	.	.
.	8A 8F#\	.	8dd'\L	.	.
.	8AJ 8F#\	.	8ff#'\J)	.	.
=3	=3	=3	=3	=3	=3
4.AA/	8AA\L	.	(8.ee\L	.	.
.	8G 8E\	.	.	.	.
.	.	.	16a\L	1	<
.	8GJ 8E\	.	16b\	.	.
.	.	.	16cc#\JJ	.	.
=4	=4	=4	=4	=4	=4
4.D/	8D\L	5	16dd\LL	1	[
.	.	.	16ff#\JJ	.	>
*	*	*above	*	*	*
.	8G#X 8E#X\	4 2	8bb\L	.	.
.	8AJ 8F#\	.	8aa\J)	.	]
=5	=5	=5	=5	=5	=5
4.AA/	8AA\L	.	(16.aa\LL	.	.
.	.	.	32a\JJk	.	.
.	8G 8E 8C#\	.	8cc#\L	.	.
.	8GJ 8E 8C#\	.	8ee\J	3	.
=6	=6	=6	=6	=6	=6
4.D/	8D\L	.	16.ff#\LL	4	.
.	.	.	32a\JJk	.	.
.	8A 8F#\	.	8dd\L	.	.
.	8AJ 8F#\	.	8ff#\J)	.	.
!!LO:LB:g=original
=7	=7	=7	=7	=7	=7
4.AA/	8AA\L	.	(8.ee\L	.	.
.	8G 8E\	.	.	.	.
.	.	.	16a\L	.	.
.	8GJ 8E\	.	16b\	.	.
.	.	.	16cc#\JJ	.	.
=8	=8	=8	=8	=8	=8
4.D/	8D\L	.	16dd\LL	1	.
.	.	.	16ee\JJ	.	.
.	8A 8F#\	.	8ff#\L	.	.
.	8AJ 8F#\	.	8dd\J)	.	.
=9:|!|:	=9:|!|:	=9:|!|:	=9:|!|:	=9:|!|:	=9:|!|:
*>B	*>B	*>B	*>B	*>B	*>B
*	*	*below	*	*	*
4.BB/	8BB\L	5	(8.b\L	2	p
.	8A 8F# 8D#X\	.	.	.	.
.	.	.	16cc#\L	3	.
.	8AJ 8F# 8D#\	.	16dd#X\	4	.
.	.	.	16b\JJ	2	.
=10	=10	=10	=10	=10	=10
4.E/	8E\L	4	8.ee\L	1	.
.	8B 8G\	.	.	.	.
.	.	.	16ff#\L	.	.
.	8BJ 8G\	.	16gg\	.	.
.	.	.	16aa\JJ	.	.
=11	=11	=11	=11	=11	=11
4.BB/	8BB\L	.	8.bb\L	.	.
.	8A 8F#\	.	.	.	.
.	.	.	16b\L	1	.
.	8AJ 8F#\	.	16cc#\	.	.
.	.	.	16dd#X\JJ)	.	.
=12	=12	=12	=12	=12	=12
*	*	*^	*	*	*
4E/	8E\L	.	4	16ee\LL	1	<
.	.	.	.	16ff#\JJ	.	.
.	8B 8G\	.	.	8gg'\L	.	.
8ryy	8B-XJ 8E 8D\	1	5	8gg#X'\J	.	[
*	*	*v	*v	*	*	*
=13	=13	=13	=13	=13	=13
*	*	*below	*	*	*
4.C#/	8C#\L	5	16.aa\LL	.	f
.	.	.	32a\JJk	.	.
.	8A 8G 8E\	.	(8cc#\L	2	.
.	8AJ 8G 8E\	.	16ee\L	3	.
.	.	.	16gg\JJ)	5	.
!!LO:LB:g=original
=14	=14	=14	=14	=14	=14
4.D/	8D\L	.	16.ff#\LL	4	.
.	.	.	32a\JJk	.	.
.	8A 8F#\	.	8dd\L	.	.
.	8AJ 8F#\	.	8ff#\J	.	.
=15	=15	=15	=15	=15	=15
4.AA/	8AA\L	.	16.ee\LL	.	.
.	.	.	32a\JJk	.	.
.	8G 8E\	.	8b\L	.	.
.	8GJ 8E\	.	8cc#\J	.	.
=16	=16	=16	=16	=16	=16
4.D/	8D\L	5	16.dd\LL	1	.
.	.	.	32ff#\JJk	.	.
.	8G#X 8E#X\	.	(8bb\L	.	.
.	8AJ 8F#\	.	8aa\J)	.	.
=17	=17	=17	=17	=17	=17
4C#/	8C#\L	.	16.aa\LL	5	.
.	.	.	32a\JJk	.	.
.	8A 8G 8E\	.	(8cc#\L	.	.
8rGGyy	8AJ 8G 8E\	.	16ee\L	.	.
.	.	.	16gg\JJ)	5	.
=18	=18	=18	=18	=18	=18
4.D/	8D\L	.	16.ff#\LL	4	.
.	.	.	32a\JJk	.	.
.	8A 8F#\	.	8dd\L	.	.
.	8AJ 8F#\	.	8ff#\J	.	.
=19	=19	=19	=19	=19	=19
4.AA/	8AA\L	.	(8.ee\L	.	.
.	8G 8E\	.	.	.	.
.	.	.	16a\L	1	.
.	8GJ 8E\	.	16b\	.	.
.	.	.	16cc#\JJ	.	.
=20	=20	=20	=20	=20	=20
[<4D/	8D\L	.	16dd\LL	1	.
.	.	.	16ee\JJ	.	.
.	8A 8F#\	.	8ff#\L	.	.
8rGGyy	8AJ 8F# 8D\]	.	8dd\J)	.	.
*v	*v	*	*	*	*
==:|!	==:|!	==:|!	==:|!	==:|!
*-	*-	*-	*-	*-
!!!system-decoration: {s1,s2}
!!!RDF**kern: < = below
!!!ENC: Marta Lawrence
!!!ENC: 2021-05-02
!!!ENC: Marcin Jachim
!!!END: 2021-04-17
